img/icons/icon-email.svg

<svg width="19" height="17" viewBox="0 0 19 17" fill="none" xmlns="http://www.w3.org/2000/svg">
<path d="M2.0166 3.32528L8.7666 7.55572C8.9934 7.69747 9.2868 7.76467 9.582 7.76467C9.8772 7.76467 10.1706 7.69747 10.3974 7.55572L17.1474 3.32528C17.5875 3.04913 18.0033 1.97498 17.196 1.97498H1.9689C1.1616 1.97498 1.5774 3.04913 2.0166 3.32528ZM17.3517 5.63842L10.3974 9.86677C10.0914 10.0537 9.8772 10.0757 9.582 10.0757C9.2868 10.0757 9.0726 10.0537 8.7666 9.86677C8.4606 9.67987 2.3469 5.94082 1.8474 5.63737C1.4964 5.42317 1.5 5.67412 1.5 5.86732V13.525C1.5 13.966 2.0094 14.575 2.4 14.575H16.8C17.1906 14.575 17.7 13.966 17.7 13.525V5.86837C17.7 5.67517 17.7036 5.42422 17.3517 5.63842Z" fill="#161C35"/>
</svg>

<svg width="19" height="17" fill="none" xmlns="http://www.w3.org/2000/svg"><path d="M2.017 3.325l6.75 4.23c.226.142.52.21.815.21.295 0 .589-.068.815-.21l6.75-4.23c.44-.276.856-1.35.049-1.35H1.969c-.807 0-.392 1.074.048 1.35zm15.335 2.313l-6.955 4.229c-.306.187-.52.209-.815.209-.295 0-.51-.022-.815-.21-.306-.186-6.42-3.925-6.92-4.229-.35-.214-.347.037-.347.23v7.658c0 .441.51 1.05.9 1.05h14.4c.39 0 .9-.609.9-1.05V5.868c0-.193.004-.444-.348-.23z" fill="#161C35"/></svg>
